images/logomark.svg

<svg xmlns="http://www.w3.org/2000/svg" height="22" width="22"><path d="M 11,0 C 4.9258093,0 0,4.9258089 0,11 0,17.074192 4.9258093,22 11,22 17.074193,22 22,17.074191 22,11 22,4.9258089 17.074193,0 11,0 Z m -0.01953,1.0488281 0.002,0 c 0.0058,7.478e-4 0.01174,7.478e-4 0.01758,0 4.548437,0 8.383631,3.0517112 9.570312,7.2167969 -1.014176,2.089994 -2.458197,3.973034 -4.21289,5.496094 -0.847558,0.733254 -1.773168,1.383222 -2.791016,1.841797 -1.017579,0.458452 -2.135179,0.719509 -3.246094,0.65625 C 9.5294478,16.213629 8.7486817,15.995173 8.0488281,15.626953 9.9697768,14.5685 11.702973,13.175396 13.126953,11.507812 14.083471,10.390566 14.918424,9.1173419 15.242188,7.6738281 15.406556,6.9515594 15.431836,6.1943666 15.28125,5.4667969 15.130532,4.7386072 14.794147,4.0463234 14.283203,3.5019531 13.784185,2.9718964 13.128033,2.5964425 12.427734,2.4042969 11.729401,2.2114616 10.987339,2.1964395 10.275391,2.3261719 8.851732,2.5871754 7.5823969,3.4120739 6.5703125,4.4335938 c -1.7875613,1.8009316 -2.890829,4.3404838 -2.6875,6.8750002 0.1024365,1.267056 0.5245075,2.511647 1.2519531,3.554687 0.1433561,0.204993 0.3020048,0.397543 0.4667969,0.583985 -1.0025238,0.345732 -2.0376377,0.59475 -3.0859375,0.738281 -0.9254407,-1.511156 -1.4609374,-3.286504 -1.4609375,-5.1875 0,-5.4904183 4.4399236,-9.9365732 9.9257815,-9.9492189 z m 0.07031,2.0195313 c 0.0037,-6.818e-4 0.01529,0.00262 0.01172,0.00195 0.69182,0 1.386808,0.2108256 1.935547,0.6269531 0.494056,0.3735908 0.861802,0.9042175 1.068359,1.4902344 0.209071,0.5866216 0.26296,1.2259698 0.191406,1.8476562 C 14.115435,8.278065 13.488594,9.423065 12.724609,10.427734 11.370875,12.206306 9.5689491,13.630746 7.5664062,14.628906 7.3753092,14.723366 7.1800803,14.814661 6.984375,14.902344 6.5676556,14.531241 6.209261,14.094335 5.9335938,13.607422 5.3446453,12.563482 5.1500227,11.322567 5.2636719,10.125 5.3796926,8.9261188 5.7903826,7.7694504 6.3457031,6.6953125 6.9885738,5.450721 7.8619904,4.2774215 9.078125,3.6054688 9.6822,3.2713159 10.364145,3.07076 11.050781,3.0683594 Z m 9.830078,6.8105468 c 0.04163,0.3672118 0.07031,0.7389948 0.07031,1.1171878 0,5.496667 -4.452583,9.953125 -9.949219,9.953125 -3.0456186,0 -5.7694054,-1.373512 -7.5917968,-3.529297 1.0864389,-0.254569 2.1486011,-0.610782 3.1699219,-1.060547 0.4620367,0.345134 0.968125,0.63322 1.5078125,0.839844 1.5901055,0.609815 3.3919624,0.519754 4.9960934,-0.03516 1.602571,-0.555431 3.021274,-1.548881 4.25586,-2.705078 1.416682,-1.32385 2.611284,-2.879645 3.541015,-4.5800778 z"/></svg>

<svg xmlns="http://www.w3.org/2000/svg" height="22" width="22"><path d="M11 0C4.926 0 0 4.926 0 11s4.926 11 11 11 11-4.926 11-11S17.074 0 11 0zm-.02 1.049h.002a.07.07 0 0 0 .018 0c4.548 0 8.384 3.052 9.57 7.217a17.315 17.315 0 0 1-4.213 5.496c-.847.733-1.773 1.383-2.79 1.842-1.018.458-2.136.719-3.247.656a5.6 5.6 0 0 1-2.271-.633 18.276 18.276 0 0 0 5.078-4.12c.956-1.116 1.791-2.39 2.115-3.833.165-.722.19-1.48.04-2.207a4.079 4.079 0 0 0-.999-1.965 4.013 4.013 0 0 0-1.855-1.098 4.85 4.85 0 0 0-2.153-.078c-1.423.261-2.693 1.086-3.705 2.108-1.787 1.8-2.89 4.34-2.687 6.875.102 1.267.524 2.511 1.252 3.554.143.205.302.398.467.584a16.228 16.228 0 0 1-3.086.739A9.946 9.946 0 0 1 10.98 1.049zm.07 2.02c.004-.001.016.002.012.001.692 0 1.387.211 1.936.627a3.2 3.2 0 0 1 1.068 1.49 4.12 4.12 0 0 1 .192 1.848c-.143 1.243-.77 2.388-1.533 3.393-1.354 1.778-3.156 3.203-5.159 4.2-.19.095-.386.187-.582.274a5.114 5.114 0 0 1-1.05-1.295c-.59-1.044-.784-2.284-.67-3.482.116-1.199.526-2.356 1.082-3.43.643-1.244 1.516-2.418 2.732-3.09a4.14 4.14 0 0 1 1.973-.537zm9.83 6.81c.042.367.071.739.071 1.117 0 5.497-4.452 9.953-9.95 9.953a9.917 9.917 0 0 1-7.59-3.53 18.138 18.138 0 0 0 3.17-1.06c.461.346.967.634 1.507.84 1.59.61 3.392.52 4.996-.035 1.603-.555 3.021-1.549 4.256-2.705a18.264 18.264 0 0 0 3.54-4.58z"/></svg>
